X:1
T: Queen Victoria's Country Dance
N:
C:
S:
A:
O:
R:
M:6/8
K:G
I:speed 150
%W: A1
% voice 1 (1 lines, 35 notes)
K:G
M:6/8
L:1/16
B2 |d4 d2 e4 d2 B4 B2 c4 B2 A4 A2 A2 G2 A2 B6 G4 B2 |d2 d2 d2 e4 d2 B2 B2 B2 d4 B2 A4 A2 A2 B2 A2 G6 G4 B2 |
%W: A2
% voice 1 (1 lines, 34 notes)
d4 d2 e4 d2 B4 B2 c4 B2 A4 A2 A2 G2 A2 B6 G4 B2 |d2 d2 d2 e4 d2 B2 B2 B2 d4 B2 A4 A2 A2 B2 A2 G6 G4 g2 |
%W: B1
% voice 1 (1 lines, 32 notes)
f4 d2 d2 e2 f2 g6 d4 B2 c4 a2 B4 g2 B2 A2 ^G2 A4 g2 |f4 d2 d2 e2 f2 g6 e4 g2 f4 d2 e4 ^c2 d6d4 g2 |
%W: B2
% voice 1 (1 lines, 33 notes)
f4 d2 d2 e2 f2 g6 d4 B2 c4 a2 B4 g2 B2 A2 ^G2 A4 g2 |f4 d2 d2 e2 f2 g6 e4 g2 f4 d2 e4 ^c2 d6 c2 B2 c2 |
%W: C
% voice 1 (1 lines, 33 notes)
d4 d2 e4 d2 B4 B2 c4 B2 A4 A2 A2 G2 A2 B6 G4 B2 |d2 d2 d2 e4 d2 B2 B2 B2 d4 B2 A4 A2 A2 B2 A2 G6 G4 ||
